X:097
U: ~ = !turn!
%%topmargin 3cm
T:Jig
T:Source: Denis Murphy
B:Traditional Irish Fiddle Tunes. Randy Miller and Jack Perron.
Z:Transcribed by Ralph Palmer
S:Denis Murphy
R:Jig
M:6/8
L:1/8
K:G
GA | B3 {/d}cBc | d2 g d2 e | dBG dBG | ABc AGA |
B3 {/d}cBc | Pd2 B d2 g | fed cBA | G3 PAGA |
B3 PcBc | Pd2 B d2 e | dBG dBG | F3 AGA |
B3 PcBc | Pd2 B d2 g | fed cBA | G3 GBd ||
|: Pg2 d B2 g | Pf2 d JPc3 | Pded c2 A | Pded B2 d |
g2 d B2 g | f2 d c2 B | ABc def | [1Pg3 GBd :| [2 Pg3 z1 |]
